X:135
T:All Who Believe and Are Baptized
%%stretchlast false
M:4/4
L:1/4
K:C clef=C1
"^I"[CEcg]/ [CEcg] "^V¹"[B,Gdg] "^I"[CEcg] "^v"[G,D^A^a] | "^IV"[F,Fca] "^I"[CEcg] "^IV"[F,FAf]3/2 | "^I"[CEcg]/ [CGe] "^IV"[F,FAc] "^I"[CGce] "^IV¹"[A,Acf] | "^V"[G,DBg]/ [G,GBg]/ "^v"[DGAa]/ "^V/V"[D^FAa]/ "^V"[G,GBg]3/2 | "^I"[CEcg]/ [CEcg] "^V¹"[B,Gdg] "^I"[CEcg] "^v"[G,D^A^a] | "^IV"[F,Fca] "^I"[CEcg] "^IV"[F,FAf]3/2 | "^I"[CEcg]/ [CGe] "^IV"[F,FAc] "^I"[CGce] "^IV¹"[A,Acf] | "^V"[G,DBg]/ [G,GBg]/ "^v"[DGAa]/ "^V/V"[D^FAa]/ "^V"[G,GBg]3/2 | "^I"[CEcg]/ "^vi"[A,Ecc'] "^IV¹"[A,Fcc']/ "^♭VII"[^A,Fd^a]/ "^IV"[F,Fca] "^I"[CEcg] | "^IV¹"[A,Fcc'] "^IV"[F,Fca] "^I"[CEcg]3/2 | "^V¹"[B,Gdg]/ "^vi"[A,Ecc']3/2 "^I"[CEcg]/ "^v"[G,D^Ag] "^IV"[F,FAc] | "^I"[CGce] "^V¹"[B,DGg] "^I"[CGce]3/2 | "^IV"[F,FAc]/ "^♭VII"[^A,F^Ad] "^IV¹"[A,Fcf] "^I"[CGce] "^ii¹"[F,FAd] | "^I²"[G,EGc] "^V"[G,DBd] "^I"[C,Ec]3/2 |]
